common/src/main/resources/icons/plugins/datagrip/expui/unspecifiedCluster.svg

<svg xmlns="http://www.w3.org/2000/svg" width="16" height="16" fill="#EC407A" data-big="true" viewBox="0 0 24 24"><path d="m21.5 10.8-8.3-8.3c-.7-.7-1.7-.7-2.4 0l-8.3 8.3c-.7.7-.7 1.7 0 2.4l8.3 8.3c.7.7 1.7.7 2.4 0l8.3-8.3c.6-.7.6-1.7 0-2.4m-9 6.2H11v-1.5h1.5zm1.8-5.2c-.4.5-1.1.8-1.4 1.3-.3.4-.3.9-.3 1.4H11c0-.8 0-1.5.3-2s1-.8 1.4-1.1c1.2-1.1.9-2.7-.8-2.8-.8 0-1.5.7-1.5 1.5H9c0-1.7 1.3-3 3-3 2.7 0 3.9 2.7 2.3 4.7"/></svg>

<!--
  - The MIT License (MIT)
  -
  - Copyright (c) 2015-2024 Elior "Mallowigi" Boukhobza
  -
  - Permission is hereby granted, free of charge, to any person obtaining a copy
  - of this software and associated documentation files (the "Software"), to deal
  - in the Software without restriction, including without limitation the rights
  - to use, copy, modify, merge, publish, distribute, sublicense, and/or sell
  - copies of the Software, and to permit persons to whom the Software is
  - furnished to do so, subject to the following conditions:
  -
  - The above copyright notice and this permission notice shall be included in all
  - copies or substantial portions of the Software.
  -
  - THE SOFTWARE IS PROVIDED "AS IS", WITHOUT WARRANTY OF ANY KIND, EXPRESS OR
  - IMPLIED, INCLUDING BUT NOT LIMITED TO THE WARRANTIES OF MERCHANTABILITY,
  - FITNESS FOR A PARTICULAR PURPOSE AND NONINFRINGEMENT. IN NO EVENT SHALL THE
  - AUTHORS OR COPYRIGHT HOLDERS BE LIABLE FOR ANY CLAIM, DAMAGES OR OTHER
  - LIABILITY, WHETHER IN AN ACTION OF CONTRACT, TORT OR OTHERWISE, ARISING FROM,
  - OUT OF OR IN CONNECTION WITH THE SOFTWARE OR THE USE OR OTHER DEALINGS IN THE
  - SOFTWARE.
  -->


<svg data-big="true" xmlns="http://www.w3.org/2000/svg" version="1.1" width="16px" height="16px" viewBox="0 0 24 24"
     fill="#EC407A">
  <path
    d="M21.5,10.8L13.2,2.5C12.5,1.8 11.5,1.8 10.8,2.5L2.5,10.8C1.8,11.5 1.8,12.5 2.5,13.2L10.8,21.5C11.5,22.2 12.5,22.2 13.2,21.5L21.5,13.2C22.1,12.5 22.1,11.5 21.5,10.8M12.5,17H11V15.5H12.5V17M14.3,11.8C13.9,12.3 13.2,12.6 12.9,13.1C12.6,13.5 12.6,14 12.6,14.5H11C11,13.7 11,13 11.3,12.5C11.6,12 12.3,11.7 12.7,11.4C13.9,10.3 13.6,8.7 11.9,8.6C11.1,8.6 10.4,9.3 10.4,10.1H9C9,8.4 10.3,7.1 12,7.1C14.7,7.1 15.9,9.8 14.3,11.8Z"/>
</svg>
